img/icons/mono/about-arctic.svg

<svg width="33" height="32" viewBox="0 0 33 32" fill="none" xmlns="http://www.w3.org/2000/svg">
<path d="M16.625 4V13.3333V4ZM28.625 16H19.2917H28.625ZM16.625 28V18.6667V28ZM4.625 16H13.9583H4.625ZM13.9583 16C13.9583 16.5274 14.1147 17.043 14.4077 17.4815C14.7008 17.9201 15.1172 18.2618 15.6045 18.4637C16.0918 18.6655 16.628 18.7183 17.1452 18.6154C17.6625 18.5125 18.1377 18.2586 18.5106 17.8856C18.8836 17.5127 19.1375 17.0375 19.2404 16.5202C19.3433 16.003 19.2905 15.4668 19.0887 14.9795C18.8868 14.4922 18.5451 14.0758 18.1065 13.7827C17.668 13.4897 17.1524 13.3333 16.625 13.3333C15.9178 13.3333 15.2395 13.6143 14.7394 14.1144C14.2393 14.6145 13.9583 15.2928 13.9583 16Z" stroke="#231F20" stroke-width="2" stroke-linecap="round" stroke-linejoin="round"/>
<path d="M20.625 6.6665L16.625 9.33317L12.625 6.6665" stroke="#231F20" stroke-width="2" stroke-linecap="round" stroke-linejoin="round"/>
<path d="M25.9587 12L23.292 16L25.9587 20" stroke="#231F20" stroke-width="2" stroke-linecap="round" stroke-linejoin="round"/>
<path d="M20.625 25.3332L16.625 22.6665L12.625 25.3332" stroke="#231F20" stroke-width="2" stroke-linecap="round" stroke-linejoin="round"/>
<path d="M7.29199 20L9.95866 16L7.29199 12" stroke="#231F20" stroke-width="2" stroke-linecap="round" stroke-linejoin="round"/>
</svg>

<svg width="33" height="32" fill="none" xmlns="http://www.w3.org/2000/svg"><path d="M16.625 4v9.333V4zm12 12h-9.333 9.333zm-12 12v-9.333V28zm-12-12h9.333-9.333zm9.333 0a2.667 2.667 0 105.334 0 2.667 2.667 0 00-5.334 0zm6.667-9.333l-4 2.666-4-2.667M25.959 12l-2.667 4 2.667 4m-5.334 5.333l-4-2.666-4 2.666M7.292 20l2.667-4-2.667-4" stroke="#231F20" stroke-width="2" stroke-linecap="round" stroke-linejoin="round"/></svg>
